assets/svg/o.svg

<svg width="1288" height="584" viewBox="0 0 1288 584" fill="none" xmlns="http://www.w3.org/2000/svg">
<path d="M645.259 1287.6C527.659 1287.6 419.659 1260 321.259 1204.8C222.859 1149.6 144.859 1073.4 87.2594 976.2C29.6594 877.8 0.859375 766.8 0.859375 643.2C0.859375 520.8 29.6594 411 87.2594 313.8C144.859 215.4 222.859 138.6 321.259 83.3999C419.659 28.2 527.659 0.599992 645.259 0.599992C764.059 0.599992 872.059 28.2 969.259 83.3999C1067.66 138.6 1145.06 215.4 1201.46 313.8C1259.06 411 1287.86 520.8 1287.86 643.2C1287.86 766.8 1259.06 877.8 1201.46 976.2C1145.06 1073.4 1067.66 1149.6 969.259 1204.8C870.859 1260 762.859 1287.6 645.259 1287.6ZM645.259 1062.6C720.859 1062.6 787.459 1045.8 845.059 1012.2C902.659 977.4 947.659 928.2 980.059 864.6C1012.46 801 1028.66 727.2 1028.66 643.2C1028.66 559.2 1012.46 486 980.059 423.6C947.659 360 902.659 311.4 845.059 277.8C787.459 244.2 720.859 227.4 645.259 227.4C569.659 227.4 502.459 244.2 443.659 277.8C386.059 311.4 341.059 360 308.659 423.6C276.259 486 260.059 559.2 260.059 643.2C260.059 727.2 276.259 801 308.659 864.6C341.059 928.2 386.059 977.4 443.659 1012.2C502.459 1045.8 569.659 1062.6 645.259 1062.6Z" fill="#FEFEFE"/>
</svg>

<svg xmlns="http://www.w3.org/2000/svg" width="1288" height="584" fill="none" xmlns:v="https://vecta.io/nano"><path d="M645.26 1287.6c-117.6 0-225.6-27.6-324-82.8s-176.4-131.4-234-228.6C29.66 877.8.86 766.8.86 643.2c0-122.4 28.8-232.2 86.4-329.4 57.6-98.4 135.6-175.2 234-230.4S527.66.6 645.26.6c118.8 0 226.8 27.6 324 82.8 98.4 55.2 175.8 132 232.2 230.4 57.6 97.2 86.4 207 86.4 329.4 0 123.6-28.8 234.6-86.4 333-56.4 97.2-133.8 173.4-232.2 228.6s-206.4 82.8-324 82.8zm0-225c75.6 0 142.2-16.8 199.8-50.4 57.6-34.8 102.6-84 135-147.6s48.6-137.4 48.6-221.4-16.2-157.2-48.6-219.6c-32.4-63.6-77.4-112.2-135-145.8s-124.2-50.4-199.8-50.4-142.8 16.8-201.6 50.4c-57.6 33.6-102.6 82.2-135 145.8-32.4 62.4-48.6 135.6-48.6 219.6s16.2 157.8 48.6 221.4 77.4 112.8 135 147.6c58.8 33.6 126 50.4 201.6 50.4z" fill="#fefefe"/></svg>
